X: 4831
T: Boys On The Hilltop, The
R: reel
M: 4/4
K: Adorian
eA~A2 eAAG|=FGGF ~G2FG|DAAG A2Bd|egdB BAAG|
=FA~A2 cAAG|DGGD ~G2BG|cEGc dB~B2|dBAG =FAAG||
A2 (3B^cd egdB|^GB~B2 def=g|(3aba gd egdB|^GBdB BAAz|
{^g}a2=gd egdB|^GB~B2 defg|(3aba gd egdB|fggf gedB||

